;Generated with Cura_SteamEngine 15.01
; Default start code
G28 ; Home extruder
G1 Z15 F100
M107 ; Turn off fan
G90 ; Absolute positioning
M82 ; Extruder in absolute mode
M190 S15
; Activate all used extruder
M104 T0 S210
G92 E0 ; Reset extruder position
; Wait for all used extruders to reach temperature
M109 T0 S210
;Layer count: 285
;LAYER:0
M107
G0 F9000 X40.779 Y65.396 Z0.300
;TYPE:SKIRT
G1 F1800 X84.778 Y33.429 E2.71331
G1 X122.838 Y61.081 E5.06038
G1 X128.768 Y65.419 E5.42694
G1 X111.971 Y117.119 E8.13898
G1 X64.828 Y117.120 E10.49095
G1 X57.571 Y117.073 E10.85301
G1 X40.779 Y65.396 E13.56388
G0 F9000 X41.250 Y65.548
G1 F1800 X84.778 Y33.923 E16.24816
G1 X122.603 Y61.404 E18.58072
G1 X128.298 Y65.571 E18.93278
G1 X111.681 Y116.719 E21.61586
G1 X64.830 Y116.720 E23.95326
G1 X57.862 Y116.675 E24.30090
G1 X41.250 Y65.548 E26.98291
G0 F9000 X41.720 Y65.701
G1 F1800 X84.778 Y34.418 E29.63818
G1 X122.367 Y61.728 E31.95620
G1 X127.828 Y65.723 E32.29378
G1 X111.390 Y116.319 E34.94790
G1 X64.831 Y116.320 E37.27074
G1 X58.153 Y116.277 E37.60391
G1 X41.720 Y65.701 E40.25701
G0 F9000 X42.190 Y65.854
G1 F1800 X84.778 Y34.912 E42.88331
G1 X122.131 Y62.051 E45.18680
G1 X127.358 Y65.874 E45.50988
G1 X111.100 Y115.919 E48.13508
G1 X64.832 Y115.920 E50.44340
G1 X58.445 Y115.879 E50.76206
G1 X42.190 Y65.854 E53.38627
G0 F9000 X42.660 Y66.007
G1 F1800 X84.778 Y35.406 E55.98360
G1 X121.896 Y62.374 E58.27259
G1 X126.888 Y66.026 E58.58117
G1 X110.809 Y115.519 E61.17742
G1 X64.833 Y115.520 E63.47117
G1 X58.736 Y115.480 E63.77536
G1 X42.660 Y66.007 E66.37062
G0 F9000 X43.130 Y66.160
G1 F1800 X84.778 Y35.901 E68.93895
G1 X121.660 Y62.697 E71.21337
G1 X126.418 Y66.178 E71.50749
G1 X110.518 Y115.119 E74.07479
G1 X64.835 Y115.120 E76.35393
G1 X59.027 Y115.082 E76.64370
G1 X43.130 Y66.160 E79.21005
G0 F9000 X43.601 Y66.312
G1 F1800 X84.778 Y36.395 E81.74935
G1 X121.424 Y63.020 E84.00922
G1 X125.948 Y66.330 E84.28889
G1 X110.228 Y114.719 E86.82722
G1 X64.836 Y114.720 E89.09184
G1 X59.318 Y114.684 E89.36714
G1 X43.601 Y66.312 E91.90462
G0 F9000 X44.071 Y66.465
G1 F1800 X84.778 Y36.890 E94.41492
G1 X121.189 Y63.344 E96.66029
G1 X125.478 Y66.482 E96.92543
G1 X109.937 Y114.319 E99.43481
G1 X64.837 Y114.320 E101.68486
G1 X59.610 Y114.286 E101.94564
G1 X44.071 Y66.465 E104.45424
G0 F9000 X44.541 Y66.618
G1 F1800 X84.778 Y37.384 E106.93556
G1 X120.953 Y63.667 E109.16640
G1 X125.009 Y66.634 E109.41711
G1 X109.646 Y113.919 E111.89756
G1 X64.839 Y113.920 E114.13299
G1 X59.901 Y113.888 E114.37936
G1 X44.541 Y66.618 E116.85905
G0 F9000 X45.011 Y66.771
G1 F1800 X84.778 Y37.878 E119.31140
G1 X120.717 Y63.990 E121.52770
G1 X124.539 Y66.786 E121.76396
G1 X109.356 Y113.519 E124.21544
G1 X64.840 Y113.520 E126.43635
G1 X60.192 Y113.490 E126.66824
G1 X45.011 Y66.771 E129.11903
G0 F9000 X45.482 Y66.924
G1 F1800 X84.778 Y38.373 E131.54235
G1 X120.482 Y64.313 E133.74412
G1 X124.069 Y66.937 E133.96584
G1 X109.065 Y113.119 E136.38842
G1 X64.841 Y113.120 E138.59477
G1 X60.483 Y113.092 E138.81219
G1 X45.482 Y66.924 E141.23406
G0 F9000 X45.952 Y67.076
G1 F1800 X84.778 Y38.867 E143.62838
G1 X120.246 Y64.637 E145.81563
G1 X123.599 Y67.089 E146.02287
G1 X108.775 Y112.719 E148.41648
G1 X64.843 Y112.720 E150.60826
G1 X60.774 Y112.694 E150.81127
G1 X45.952 Y67.076 E153.20428
G0 F9000 X46.422 Y67.229
G1 F1800 X84.778 Y39.362 E155.56960
G1 X120.011 Y64.960 E157.74233
G1 X123.129 Y67.241 E157.93507
G1 X108.484 Y112.319 E160.29973
G1 X64.844 Y112.320 E162.47693
G1 X61.066 Y112.295 E162.66542
G1 X46.422 Y67.229 E165.02950
G0 F9000 X46.892 Y67.382
G1 F1800 X84.778 Y39.856 E167.36585
G1 X119.775 Y65.283 E169.52404
G1 X122.659 Y67.393 E169.70232
G1 X108.193 Y111.919 E172.03802
G1 X64.845 Y111.920 E174.20067
G1 X61.357 Y111.897 E174.37469
G1 X46.892 Y67.382 E176.70986
G0 F9000 X47.363 Y67.535
G1 F1800 X84.778 Y40.351 E179.01717
G1 X119.539 Y65.606 E181.16079
G1 X122.189 Y67.545 E181.32461
G1 X107.903 Y111.519 E183.63135
G1 X64.846 Y111.520 E185.77947
G1 X61.648 Y111.499 E185.93902
G1 X47.363 Y67.535 E188.24528
G0 F9000 X47.833 Y67.688
G1 F1800 X84.778 Y40.845 E190.52361
G1 X119.304 Y65.929 E192.65273
G1 X121.719 Y67.697 E192.80206
G1 X107.612 Y111.119 E195.07985
G1 X64.848 Y111.120 E197.21335
G1 X61.939 Y111.101 E197.35849
G1 X47.833 Y67.688 E199.63583
G0 F9000 X48.303 Y67.840
G1 F1800 X84.778 Y41.339 E201.88517
G1 X119.068 Y66.253 E203.99978
G1 X121.249 Y67.848 E204.13459
G1 X107.321 Y110.719 E206.38347
G1 X64.849 Y110.720 E208.50241
G1 X62.231 Y110.703 E208.63303
G1 X48.303 Y67.840 E210.88153
G0 F9000 X48.773 Y67.993
G1 F1800 X84.778 Y41.834 E213.10187
G1 X118.832 Y66.576 E215.20191
G1 X120.779 Y68.000 E215.32226
G1 X107.031 Y110.319 E217.54218
G1 X64.850 Y110.320 E219.64660
G1 X62.522 Y110.305 E219.76274
G1 X48.773 Y67.993 E221.98235
G0 F9000 X49.243 Y68.146
G1 F1800 X84.778 Y42.328 E224.17372
G1 X118.597 Y66.899 E226.25926
G1 X120.309 Y68.152 E226.36510
G1 X106.740 Y109.919 E228.55607
G1 X64.852 Y109.920 E230.64587
G1 X62.813 Y109.907 E230.74760
G1 X49.243 Y68.146 E232.93830
G0 F9000 X49.714 Y68.299
G1 F1800 X84.778 Y42.823 E235.10063
G1 X118.361 Y67.222 E237.17161
G1 X119.840 Y68.304 E237.26303
G1 X106.449 Y109.519 E239.42506
G1 X64.853 Y109.520 E241.50030
G1 X63.104 Y109.509 E241.58756
G1 X49.714 Y68.299 E243.74934
G0 F9000 X50.184 Y68.451
G1 F1800 X84.778 Y43.317 E245.88267
G1 X118.125 Y67.546 E247.93913
G1 X119.370 Y68.456 E248.01607
G1 X106.159 Y109.119 E250.14913
G1 X64.854 Y109.120 E252.20985
G1 X63.395 Y109.111 E252.28264
G1 X50.184 Y68.451 E254.41557
G0 F9000 X50.654 Y68.604
G1 F1800 X84.778 Y43.812 E256.51990
G1 X117.890 Y67.869 E258.56183
G1 X118.900 Y68.608 E258.62427
G1 X105.868 Y108.719 E260.72838
G1 X64.855 Y108.720 E262.77453
G1 X63.687 Y108.712 E262.83280
G1 X50.654 Y68.604 E264.93679
G0 F9000 X51.124 Y68.757
G1 F1800 X84.778 Y44.306 E267.01215
G1 X117.654 Y68.192 E269.03955
G1 X118.430 Y68.759 E269.08750
G1 X105.578 Y108.319 E271.16269
G1 X64.857 Y108.320 E273.19427
G1 X63.978 Y108.314 E273.23813
G1 X51.124 Y68.757 E275.31321
G0 F9000 X51.595 Y68.910
G1 F1800 X84.778 Y44.800 E277.35956
G1 X117.418 Y68.515 E279.37242
G1 X117.960 Y68.911 E279.40590
G1 X105.287 Y107.919 E281.45215
G1 X64.858 Y107.920 E283.46916
G1 X64.269 Y107.916 E283.49855
G1 X51.595 Y68.910 E285.54471
G0 F9000 X52.065 Y69.063
G1 F1800 X84.778 Y45.295 E287.56207
G1 X117.490 Y69.063 E289.57938
G1 X104.996 Y107.519 E291.59667
G1 X64.859 Y107.520 E293.59912
G1 X64.560 Y107.518 E293.61403
G1 X52.065 Y69.063 E295.63130
G0 F9000 X53.005 Y69.368
;TYPE:WALL-INNER
G1 F1800 X84.778 Y46.283 E297.59068
G1 X116.550 Y69.367 E299.55000
G1 X104.415 Y106.719 E301.50937
G1 X65.142 Y106.720 E303.46871
G1 X53.005 Y69.368 E305.42812
G0 F9000 X82.998 Y51.548
G1 F1800 X83.237 Y51.855 E305.44753
G1 X83.483 Y52.086 E305.46436
G1 X83.797 Y52.289 E305.48302
G1 X84.157 Y52.435 E305.50240
G1 X84.484 Y52.511 E305.51915
G1 X84.855 Y52.531 E305.53768
G1 X85.250 Y52.477 E305.55757
G1 X85.594 Y52.365 E305.57562
G1 X85.898 Y52.210 E305.59265
G1 X86.204 Y51.969 E305.61208
G1 X86.434 Y51.725 E305.62881
G1 X86.637 Y51.412 E305.64742
G1 X86.783 Y51.050 E305.66690
G1 X86.859 Y50.723 E305.68364
G1 X86.879 Y50.352 E305.70218
G1 X86.825 Y49.959 E305.72197
G1 X86.714 Y49.614 E305.74005
G1 X86.558 Y49.311 E305.75706
G1 X86.318 Y49.002 E305.77658
G1 X86.072 Y48.774 E305.79331
G1 X85.761 Y48.570 E305.81187
G1 X85.398 Y48.424 E305.83139
G1 X85.073 Y48.348 E305.84804
G1 X84.700 Y48.328 E305.86667
G1 X84.306 Y48.382 E305.88651
G1 X83.962 Y48.494 E305.90456
G1 X83.664 Y48.646 E305.92125
G1 X83.350 Y48.891 E305.94112
G1 X83.122 Y49.134 E305.95775
G1 X82.918 Y49.446 E305.97634
G1 X82.772 Y49.809 E305.99586
G1 X82.695 Y50.137 E306.01267
G1 X82.677 Y50.508 E306.03120
G1 X82.731 Y50.900 E306.05095
G1 X82.842 Y51.245 E306.06903
G1 X82.998 Y51.548 E306.08603
G0 F9000 X83.337 Y51.332
;TYPE:WALL-OUTER
G1 F1800 X83.534 Y51.585 E306.10203
G1 X83.730 Y51.770 E306.11547
G1 X83.982 Y51.932 E306.13042
G1 X84.278 Y52.052 E306.14635
G1 X84.541 Y52.114 E306.15983
G1 X84.838 Y52.130 E306.17467
G1 X85.160 Y52.086 E306.19089
G1 X85.440 Y51.994 E306.20559
G1 X85.681 Y51.871 E306.21909
G1 X85.933 Y51.673 E306.23508
G1 X86.118 Y51.477 E306.24853
G1 X86.280 Y51.227 E306.26339
G1 X86.400 Y50.929 E306.27942
G1 X86.462 Y50.666 E306.29290
G1 X86.478 Y50.369 E306.30773
G1 X86.434 Y50.048 E306.32390
G1 X86.343 Y49.768 E306.33859
G1 X86.219 Y49.527 E306.35211
G1 X86.022 Y49.273 E306.36815
G1 X85.825 Y49.090 E306.38156
G1 X85.575 Y48.927 E306.39645
G1 X85.277 Y48.807 E306.41248
G1 X85.016 Y48.745 E306.42586
G1 X84.717 Y48.729 E306.44080
G1 X84.396 Y48.773 E306.45696
G1 X84.116 Y48.865 E306.47167
G1 X83.877 Y48.987 E306.48506
G1 X83.621 Y49.186 E306.50123
G1 X83.438 Y49.382 E306.51461
G1 X83.275 Y49.632 E306.52950
G1 X83.155 Y49.930 E306.54553
G1 X83.093 Y50.193 E306.55901
G1 X83.078 Y50.491 E306.57389
G1 X83.122 Y50.811 E306.59001
G1 X83.213 Y51.091 E306.60470
G1 X83.337 Y51.332 E306.61822
G0 F9000 X83.070 Y51.469
G0 X82.696 Y50.138
G0 X83.666 Y48.647
G0 X84.728 Y46.122
G0 X84.778 Y45.790
G1 F1800 X117.020 Y69.216 E308.60653
G1 X104.706 Y107.119 E310.59481
G1 X64.861 Y107.120 E312.58269
G1 X52.535 Y69.216 E314.57120
G1 X84.778 Y45.790 E316.55956
G0 F9000 X84.698 Y46.514
;TYPE:SKIN
G1 F1800 X114.232 Y76.048 E318.64334
G0 F9000 X114.371 Y75.622
G1 F1800 X86.344 Y47.595 E320.62080
G0 F9000 X85.312 Y48.260
G1 F1800 X84.043 Y46.990 E320.71037
G0 F9000 X84.371 Y46.753
G1 F1800 X114.093 Y76.475 E322.80741
G0 F9000 X113.955 Y76.902
G1 F1800 X86.952 Y49.899 E324.71262
G0 F9000 X87.009 Y50.522
G1 F1800 X113.816 Y77.329 E326.60400
G0 F9000 X113.678 Y77.756
G1 F1800 X86.933 Y51.012 E328.49097
G0 F9000 X86.780 Y51.425
G1 F1800 X113.539 Y78.184 E330.37896
G0 F9000 X113.400 Y78.610
G1 F1800 X86.566 Y51.776 E332.27224
G0 F9000 X86.296 Y52.072
G1 F1800 X113.261 Y79.037 E334.17477
G0 F9000 X113.122 Y79.464
G1 F1800 X85.980 Y52.322 E336.08978
G0 F9000 X85.602 Y52.509
G1 F1800 X112.984 Y79.891 E338.02173
G0 F9000 X114.510 Y75.195
G1 F1800 X88.413 Y49.098 E339.86302
G0 F9000 X90.482 Y50.601
G1 F1800 X114.648 Y74.768 E341.56809
G0 F9000 X114.787 Y74.340
G1 F1800 X92.551 Y52.104 E343.13696
G0 F9000 X94.619 Y53.607
G1 F1800 X114.926 Y73.913 E344.56970
G0 F9000 X115.064 Y73.486
G1 F1800 X96.687 Y55.109 E345.86629
G0 F9000 X98.756 Y56.613
G1 F1800 X115.203 Y73.060 E347.02672
G0 F9000 X115.342 Y72.633
G1 F1800 X100.824 Y58.115 E348.05104
G0 F9000 X102.893 Y59.619
G1 F1800 X115.481 Y72.206 E348.93916
G0 F9000 X115.619 Y71.779
G1 F1800 X104.962 Y61.121 E349.69110
G0 F9000 X107.030 Y62.624
G1 F1800 X115.758 Y71.352 E350.30691
G0 F9000 X115.896 Y70.924
G1 F1800 X109.099 Y64.127 E350.78648
G0 F9000 X111.167 Y65.630
G1 F1800 X116.036 Y70.498 E351.12997
G0 F9000 X116.174 Y70.071
G1 F1800 X113.236 Y67.133 E351.33727
G0 F9000 X115.305 Y68.636
G1 F1800 X116.313 Y69.644 E351.40839
G0 F9000 X112.845 Y80.318
G1 F1800 X85.158 Y52.631 E353.36185
G0 F9000 X84.620 Y52.658
G1 F1800 X112.706 Y80.745 E355.34351
G0 F9000 X112.567 Y81.172
G1 F1800 X83.861 Y52.465 E357.36891
G0 F9000 X82.729 Y51.333
G1 F1800 X80.767 Y49.371 E357.50734
G0 F9000 X81.094 Y49.133
G1 F1800 X82.544 Y50.583 E357.60964
G0 F9000 X82.572 Y50.045
G1 F1800 X81.421 Y48.895 E357.69081
G0 F9000 X81.750 Y48.657
G1 F1800 X82.701 Y49.609 E357.75795
G0 F9000 X82.890 Y49.232
G1 F1800 X82.077 Y48.419 E357.81531
G0 F9000 X82.405 Y48.181
G1 F1800 X83.137 Y48.913 E357.86696
G0 F9000 X83.435 Y48.646
G1 F1800 X82.732 Y47.943 E357.91656
G0 F9000 X83.060 Y47.704
G1 F1800 X83.782 Y48.427 E357.96753
G0 F9000 X84.192 Y48.271
G1 F1800 X83.388 Y47.467 E358.02426
G0 F9000 X83.715 Y47.229
G1 F1800 X84.675 Y48.188 E358.09196
G0 F9000 X80.439 Y49.609
G1 F1800 X112.429 Y81.599 E360.34902
G0 F9000 X112.290 Y82.026
G1 F1800 X80.111 Y49.847 E362.61943
G0 F9000 X79.784 Y50.085
G1 F1800 X112.152 Y82.453 E364.90316
G0 F9000 X112.013 Y82.880
G1 F1800 X79.456 Y50.323 E367.20024
G0 F9000 X79.128 Y50.561
G1 F1800 X111.874 Y83.307 E369.51064
G0 F9000 X111.735 Y83.734
G1 F1800 X78.801 Y50.799 E371.83435
G0 F9000 X78.473 Y51.037
G1 F1800 X111.597 Y84.161 E374.17143
G0 F9000 X111.458 Y84.588
G1 F1800 X78.145 Y51.275 E376.52184
G0 F9000 X77.817 Y51.513
G1 F1800 X111.319 Y85.015 E378.88559
G0 F9000 X111.181 Y85.442
G1 F1800 X77.490 Y51.751 E381.26267
G0 F9000 X77.163 Y51.990
G1 F1800 X111.041 Y85.868 E383.65294
G0 F9000 X110.903 Y86.296
G1 F1800 X76.834 Y52.227 E386.05670
G0 F9000 X76.507 Y52.465
G1 F1800 X110.764 Y86.723 E388.47375
G0 F9000 X110.626 Y87.150
G1 F1800 X76.180 Y52.704 E390.90410
G0 F9000 X75.852 Y52.941
G1 F1800 X110.487 Y87.577 E393.34782
G0 F9000 X110.348 Y88.004
G1 F1800 X75.524 Y53.180 E395.80484
G0 F9000 X75.197 Y53.418
G1 F1800 X110.209 Y88.430 E398.27513
G0 F9000 X110.071 Y88.857
G1 F1800 X74.869 Y53.655 E400.75882
G0 F9000 X74.541 Y53.894
G1 F1800 X109.932 Y89.284 E403.25581
G0 F9000 X109.793 Y89.712
G1 F1800 X74.213 Y54.131 E405.76621
G0 F9000 X73.886 Y54.370
G1 F1800 X109.655 Y90.139 E408.28990
G0 F9000 X109.515 Y90.565
G1 F1800 X73.558 Y54.608 E410.82686
G0 F9000 X73.230 Y54.846
G1 F1800 X109.377 Y90.992 E413.37719
G0 F9000 X109.238 Y91.419
G1 F1800 X72.903 Y55.084 E415.94082
G0 F9000 X72.576 Y55.322
G1 F1800 X109.100 Y91.846 E418.51779
G0 F9000 X108.961 Y92.273
G1 F1800 X72.247 Y55.560 E421.10813
G0 F9000 X71.920 Y55.798
G1 F1800 X108.823 Y92.700 E423.71180
G0 F9000 X108.683 Y93.127
G1 F1800 X71.593 Y56.036 E426.32873
G0 F9000 X71.265 Y56.274
G1 F1800 X108.545 Y93.554 E428.95904
G0 F9000 X108.406 Y93.981
G1 F1800 X70.937 Y56.512 E431.60268
G0 F9000 X70.609 Y56.750
G1 F1800 X108.267 Y94.408 E434.25965
G0 F9000 X108.129 Y94.835
G1 F1800 X70.282 Y56.988 E436.92996
G0 F9000 X69.954 Y57.226
G1 F1800 X107.990 Y95.262 E439.61361
G0 F9000 X107.851 Y95.689
G1 F1800 X69.626 Y57.464 E442.31059
G0 F9000 X69.299 Y57.702
G1 F1800 X107.712 Y96.116 E445.02087
G0 F9000 X107.574 Y96.543
G1 F1800 X68.971 Y57.941 E447.74448
G0 F9000 X68.643 Y58.178
G1 F1800 X107.435 Y96.970 E450.48147
G0 F9000 X107.297 Y97.397
G1 F1800 X68.316 Y58.416 E453.23179
G0 F9000 X67.989 Y58.655
G1 F1800 X107.158 Y97.824 E455.99537
G0 F9000 X107.019 Y98.251
G1 F1800 X67.660 Y58.892 E458.77236
G0 F9000 X67.333 Y59.131
G1 F1800 X106.880 Y98.678 E461.56262
G0 F9000 X106.742 Y99.105
G1 F1800 X67.005 Y59.368 E464.36628
G0 F9000 X66.678 Y59.606
G1 F1800 X106.603 Y99.532 E467.18324
G0 F9000 X106.464 Y99.959
G1 F1800 X66.350 Y59.845 E470.01350
G0 F9000 X66.022 Y60.082
G1 F1800 X106.326 Y100.386 E472.85716
G0 F9000 X106.186 Y100.812
G1 F1800 X65.695 Y60.321 E475.71402
G0 F9000 X65.367 Y60.559
G1 F1800 X106.048 Y101.240 E478.58428
G0 F9000 X105.909 Y101.667
G1 F1800 X65.039 Y60.797 E481.46788
G0 F9000 X64.712 Y61.035
G1 F1800 X105.771 Y102.094 E484.36482
G0 F9000 X105.632 Y102.521
G1 F1800 X64.384 Y61.272 E487.27512
G0 F9000 X64.056 Y61.511
G1 F1800 X105.493 Y102.947 E490.19869
G0 F9000 X105.354 Y103.374
G1 F1800 X63.729 Y61.749 E493.13556
G0 F9000 X63.401 Y61.987
G1 F1800 X105.216 Y103.801 E496.08580
G0 F9000 X105.077 Y104.228
G1 F1800 X63.073 Y62.225 E499.04937
G0 F9000 X62.746 Y62.463
G1 F1800 X104.938 Y104.656 E502.02628
G0 F9000 X104.800 Y105.083
G1 F1800 X62.418 Y62.701 E505.01656
G0 F9000 X62.091 Y62.939
G1 F1800 X104.660 Y105.509 E508.02007
G0 F9000 X104.522 Y105.936
G1 F1800 X61.763 Y63.177 E511.03695
G0 F9000 X61.435 Y63.415
G1 F1800 X104.383 Y106.363 E514.06716
G0 F9000 X104.032 Y106.577
G1 F1800 X61.108 Y63.653 E517.09568
G0 F9000 X60.780 Y63.891
G1 F1800 X103.466 Y106.577 E520.10741
G0 F9000 X102.901 Y106.577
G1 F1800 X60.452 Y64.129 E523.10238
G0 F9000 X60.125 Y64.367
G1 F1800 X102.335 Y106.577 E526.08052
G0 F9000 X101.769 Y106.577
G1 F1800 X59.797 Y64.605 E529.04187
G0 F9000 X59.469 Y64.843
G1 F1800 X101.203 Y106.577 E531.98643
G0 F9000 X100.638 Y106.577
G1 F1800 X59.142 Y65.082 E534.91416
G0 F9000 X58.814 Y65.319
G1 F1800 X100.072 Y106.577 E537.82514
G0 F9000 X99.506 Y106.577
G1 F1800 X58.486 Y65.557 E540.71932
G0 F9000 X58.159 Y65.796
G1 F1800 X98.941 Y106.577 E543.59668
G0 F9000 X98.375 Y106.577
G1 F1800 X57.831 Y66.033 E546.45728
G0 F9000 X57.504 Y66.272
